!!!OTL: ICH HAB MIR EINEN GARTEN GEPFLANZT
!!!ARE: Europa, Mitteleuropa, Deutschland, Bonn, Kessenich
!!!SCT: E0552
!!!YEM: Copyright 1995, estate of Helmut Schaffrath.
**kern
*ICvox
*Ivox
*M4/4
*k[]
*a:
{4e
=1
4a
4b
4ccn
4b
=2
2a
4gn}
{4gn
=3
8ccn
8dd
8ee
8ee
4dd
8dd
8b
=4
2ccn
4r}
{8ccn
8dd
=5
4ee
4ee
4ccn
4ee
=6
4dd
4ccn
4b}
{8b
8ccn
=7
4dd
4dd
4b
4ee
=8
4ccn
8b
8ccn
4a
4r}
=9
{4.b
8ccn
4dd
8ee
8b
=10
4ccn
4b
4a}
==
!!!AGN: Liebes - Lied, Vertroestung
!!!ONB: ESAC (Essen Associative Code) Database: ERK1
!!!AMT: simple quadruple
!!!AIN: vox
!!!EED: Helmut Schaffrath
!!!EEV: 1.0
*-
